X:1
T:A Call to Reapers
T:A Call to Reapers
T:James Edmond Thomas
T:William I. Feazell, 1905
T:Public Domain Courtesy of the Cyber Hymnal™
T:Public Domain Courtesy of the Cyber Hymnal™
C:James Edmond Thomas
Z:Public Domain
Z:Courtesy of the Cyber Hymnal™
%%score ( 1 2 ) ( 3 4 )
L:1/8
Q:1/4=80
M:6/8
K:Ab
V:1 treble 
V:2 treble 
V:3 bass 
V:4 bass 
V:1
 [Ec] | [Ae]>[Af][Ae] ([Ac]/[Ac]/) z [_GA]/[GA]/ | [FB]<[FA][DF] [CE]2 ([CE]/[CE]/) | %3
w: 1.~The|har- vest is white * and the|reap- ers are few, While *|
w: 2.~The|Lord of the har- * vest ap-|peals un- to you, To *|
w: 3.~The|Sav- ior is with * us, so|bur- y your fears; Your *|
w: 4.~When|life’s work is done * and we|ga- ther at home, With *|
 [EA]>[EA][EA] [Ac]>[EB][FA] | [Ge]3- [Ge]2 [Ac]/[Ad]/ | [Ae]>[Af][Ae] ([Ac][Ac])[_GA] | %6
w: thou- sands are dy- ing in|sin, * And the|Sav- ior a- bove * is|
w: go out in the fields of|sin, * And tell|to the world this * Gos-|
w: la- bors will not be in|vain; * In the|morn- ing sow seed * and|
w: mil- lions now wait- ing us|there, * Ev- ery|soul we have won * will|
 [FB]<[FA][DF] [CE]2 ([CE]/[CE]/) | [FA]>[EA][CA] ([Ec][Ec])[EB] | [EA]3- [EA]2 z || %9
w: call- ing for you, To *|ga- ther the lost * ones|in. *|
w: pel so true, And win- *|ning the lost ones * to|Him. *|
w: bathe them in tears, Re- *|turn- ing at eve * with|grain. *|
w: add a bright star To~the *|beau- ti- ful crown~we * shall|wear. *|
"^Refrain" [CE][DF][EG] [FA] z [EA] | [EA]2 [DF] [CE]2 [CA] | [Ec][DB][CA] (AB)[Ac] | %12
w: |||
w: Ga- ther them in, the|gold- en grain, Go|ga- ther from fields * of|
w: |||
w: |||
 e3- !fermata![Be]2 [Ec] | [Ae]>[Af][Ae] [Ec] z [EA]/[=EA]/ | [FA]<[FA][DF] [CE] z !fermata![CA] | %15
w: |||
w: sin; The har-|* vest is white and the|glean- ers are few, O|
w: |||
w: |||
 [Ec] !fermata![_Ge]2 z3 | [Ac][EB][EA] [Ac]2 [EB] | A3- [EA]2 |] %18
w: |||
w: reap- ers!|Ga- ther the last ones|in. *|
w: |||
w: |||
V:2
 x | x6 | x6 | x6 | x6 | x6 | x6 | x6 | x6 || x6 | x6 | x3 E2 x | G2 A x3 | x6 | x6 | x6 | x6 | %17
 AGF x2 |] %18
V:3
 A, | [A,C]>[A,D][A,C] ([A,E]/[A,E]/) z [A,C]/[A,C]/ | [D,D]<[D,D][D,A,] [A,,A,]2 A,/A,/ | %3
w: ~|~ ~ ~ ~ * ~ ~|~ ~ ~ ~ ~ ~|
 [A,C]>[A,C][A,C] [A,E]>[G,E][F,=D] | ([E,-E]3 [E,B,]2) A,/[A,B,]/ | %5
w: ~ ~ ~ ~ ~ ~|~ * ~ ~|
 [A,C]>[A,D][A,C] [A,E]2 [A,C] | [D,D]<[D,D][D,A,] [A,,A,]2 A,/A,/ | %7
w: ~ ~ ~ ~ ~|~ ~ ~ ~ ~ ~|
 [F,C]>[F,B,][F,A,] ([E,A,][E,A,])[E,D] | [A,,A,C]3- [A,,A,C]2 z || z3 [E,C][F,D][G,E] | %10
w: ~ ~ ~ ~ * Ga-|ther *|the ~ ~|
 [A,C]2 A, A,2 A, | A,A,A, ([A,C][G,B,])[F,A,] | (B,2 C [E,C]2) A, | %13
w: ~ ~ ~ ~|~ ~ ~ ~ * ~|~ * * ~|
 [A,C]>[A,D][A,C] A, z [C,A,]/[C,A,]/ | [D,D]<[D,D][D,A,] [G,,A,] z2 | z3 [F,C] !fermata![F,A,]2 | %16
w: ~ ~ ~ ~ ~ ~|~ reap- ers! ~|~ ~|
 [E,E][E,D][E,C] [E,E]2 [E,D] | CED [A,,C]2 |] %18
w: * ~ ~ ~ ga-|ther them~in. * *|
V:4
 A, | x6 | x5 (A,/A,/) | x6 | x5 A,/ x/ | x6 | x5 (A,/A,/) | x6 | x6 || x6 | x2 A, A,2 A, | %11
 A,A,A, x3 | E,3- A, x2 | x3 A, x2 | x6 | x6 | x6 | A,,3- x2 |] %18

